!!!OTL: Erin Far Away
!!!ONM: 71.
**kern
*clefG2
*k[b-]
*F:
*M6/8
*MM110
{8f
=1
4a
8f
(8d
8f)
8d
=2
(4c
8A)
4c
8c
=3
4d
8f
4f
8e
=4
4.f
4r}
{8cc
=5
4cc
8cc
(8dd
8cc)
8a
=6
(4dd
8cc)
4cc
16cc
16cc
=7
4cc
8dd
4a
8g
=8
4.a
4r}
{16cc
16cc
=9
4cc
8cc
(8dd
8cc)
8a
=10
4dd
8cc
4cc
8cc
=11
4cc
8dd
4a
8g
=12
4.a
8r}
{8f
8f
=13
4a
8f
(8d
8f)
8d
=14
4c
8A
4c
8c
=15
4d
8f
4f
8e
=16
4.f
4r}
==
*-
!!!CNT: Folksongs of Maritime Canada
!!!MRD: 1928///-1932///
!!!OCL: Helen Creighton
!!!YOR: Songs and Ballads from Nova Scotia
!!!PPR: J.M. Dent & Sons, Limited
!!!PPP: Toronto, Canada
!!!PDT: 1932///
!!!reprint: Dover Publications, 1992: ISBN 0-486-21703-5
!!!ENC1: Craig Stuart Sapp (music and bibliographic data)                       
!!!ENC2: Marcus Pearce (phrase markings and key designations)                   
!!!ENC3: Darrell Conklin (phrase markings and key designations)   
!!!END: 2002/04/10/
!!!EEV: 2004/06/05
!!!MPN: Mr. Ben Henneberry
!!!PPG: 146
!!!EFL: 72/152
!!!ARE: Canada; Nova Scotia
!!!verses: 7
!!!VTS: 3553363527
